svgs/solid/mug.svg

<svg xmlns="http://www.w3.org/2000/svg" viewBox="0 0 576 512"><!-- Font Awesome Pro 6.0.0-alpha2 by @fontawesome - https://fontawesome.com License - https://fontawesome.com/license (Commercial License) --><path d="M448 64H56C49.625 64 43.5 66.5 39 71S32 81.625 32 88V352C32 405 75 448 128 448H320C373 448 416 405 416 352V320H448C518.75 320 576 262.75 576 192S518.75 64 448 64ZM448 256H416V128H448C483.375 128 512 156.625 512 192S483.375 256 448 256Z"/></svg>

<svg xmlns="http://www.w3.org/2000/svg" viewBox="0 0 576 512"><!--! Font Awesome Pro 6.0.0-alpha3 by @fontawesome - https://fontawesome.com License - https://fontawesome.com/license (Commercial License) --><path d="M448 64H56C49.63 64 43.5 66.5 39 71S32 81.63 32 88V352c0 53 43 96 96 96h192c53 0 96-43 96-96v-32h32c70.75 0 128-57.25 128-128S518.8 64 448 64zM448 256h-32V128h32c35.38 0 64 28.62 64 64S483.4 256 448 256z"/></svg>
